public/confidential.svg

<svg width="70" height="70" viewBox="0 0 70 70" fill="none" xmlns="http://www.w3.org/2000/svg">
<path d="M60 0H10C4.47715 0 0 4.47715 0 10V60C0 65.5229 4.47715 70 10 70H60C65.5229 70 70 65.5229 70 60V10C70 4.47715 65.5229 0 60 0Z" fill="#F3FCF7"/>
<path d="M20 28.5714L35 20L50 28.5714V30.1141C50 39.348 43.8787 47.4632 35 50C26.1213 47.4632 20 39.348 20 30.1141V28.5714Z" fill="#3A76BF"/>
<path d="M27.5 35L33.9286 40.3571L42.5 29.6429M35 20L20 28.5714V30.1141C20 39.348 26.1213 47.4632 35 50C43.8787 47.4632 50 39.348 50 30.1141V28.5714L35 20Z" stroke="#F3FCF7" stroke-width="2" stroke-linejoin="round"/>
</svg>

<svg xmlns="http://www.w3.org/2000/svg" width="70" height="70" fill="none" xmlns:v="https://vecta.io/nano"><path d="M60 0H10C4.477 0 0 4.477 0 10v50c0 5.523 4.477 10 10 10h50c5.523 0 10-4.477 10-10V10c0-5.523-4.477-10-10-10z" fill="#f3fcf7"/><path d="M20 28.571L35 20l15 8.571v1.543C50 39.348 43.879 47.463 35 50c-8.879-2.537-15-10.652-15-19.886v-1.543z" fill="#3a76bf"/><path d="M27.5 35l6.429 5.357L42.5 29.643M35 20l-15 8.571v1.543C20 39.348 26.121 47.463 35 50c8.879-2.537 15-10.652 15-19.886v-1.543L35 20z" stroke="#f3fcf7" stroke-width="2" stroke-linejoin="round"/></svg>
